preferences/24/preferences-desktop-tablet.svg

<!-- Created with Inkscape (http://www.inkscape.org/) -->
<svg xmlns:inkscape="http://www.inkscape.org/namespaces/inkscape" xmlns:sodipodi="http://sodipodi.sourceforge.net/DTD/sodipodi-0.dtd" xmlns:xlink="http://www.w3.org/1999/xlink" xmlns="http://www.w3.org/2000/svg" xmlns:svg="http://www.w3.org/2000/svg" width="24" height="24" version="1.1" viewBox="0 0 24 24" id="svg22" sodipodi:docname="preferences-desktop-tablet.svg" inkscape:version="1.1.2 (0a00cf5339, 2022-02-04)">
  <sodipodi:namedview id="namedview24" pagecolor="#ffffff" bordercolor="#666666" borderopacity="1.0" inkscape:showpageshadow="2" inkscape:pageopacity="0.0" inkscape:pagecheckerboard="0" inkscape:deskcolor="#d1d1d1" showgrid="false" inkscape:zoom="31.56" inkscape:cx="6.7173638" inkscape:cy="13.751584" inkscape:window-width="3440" inkscape:window-height="1356" inkscape:window-x="0" inkscape:window-y="0" inkscape:window-maximized="1" inkscape:current-layer="svg22" inkscape:pageshadow="2"/>
  <defs id="defs12">
    <linearGradient id="linearGradient1005-3-3" x1="5.2535" x2="9.3823996" y1="15.383" y2="2.9421" gradientTransform="matrix(0.99999,0,0,0.99999,1.632,-0.61743)" gradientUnits="userSpaceOnUse">
      <stop stop-color="#fa8200" offset="0" id="stop2"/>
      <stop stop-color="#ff9600" offset=".36953" id="stop4"/>
      <stop stop-color="#ffb400" offset="1" id="stop6"/>
    </linearGradient>
    <filter id="filter4014" x="-0.062499933" y="-0.057692993" width="1.1249999" height="1.115386" color-interpolation-filters="sRGB">
      <feGaussianBlur stdDeviation="1.093751" id="feGaussianBlur9"/>
    </filter>
    <linearGradient inkscape:collect="always" xlink:href="#linearGradient3487" id="linearGradient3403" gradientUnits="userSpaceOnUse" x1="6.9491749" y1="4.5549412" x2="11.215498" y2="59.052471"/>
    <linearGradient id="linearGradient3487">
      <stop style="stop-color:#32373c;stop-opacity:1" offset="0" id="stop3481"/>
      <stop id="stop3483" offset="0.36804965" style="stop-color:#1a1a1a;stop-opacity:1"/>
      <stop style="stop-color:#31363b;stop-opacity:1" offset="1" id="stop3485"/>
    </linearGradient>
    <linearGradient inkscape:collect="always" xlink:href="#linearGradient20604" id="linearGradient20558" gradientUnits="userSpaceOnUse" x1="25.802212" y1="20.373846" x2="25.111048" y2="58.912758"/>
    <linearGradient id="linearGradient20604">
      <stop id="stop20598" offset="0" style="stop-color:#3d3d3d;stop-opacity:1"/>
      <stop style="stop-color:#000000;stop-opacity:1" offset="0.61772454" id="stop20600"/>
      <stop id="stop20602" offset="1" style="stop-color:#3d3d3d;stop-opacity:1"/>
    </linearGradient>
    <filter inkscape:collect="always" style="color-interpolation-filters:sRGB" id="filter20720" x="-0.017024755" y="-0.016457183" width="1.0340491" height="1.0329144">
      <feGaussianBlur inkscape:collect="always" stdDeviation="0.14745661" id="feGaussianBlur20722"/>
    </filter>
    <linearGradient gradientTransform="translate(0.36067797,-0.13016949)" xlink:href="#linearGradient4555" id="linearGradient4557" x1="43.499737" y1="64.011795" x2="44.141731" y2="0.30621234" gradientUnits="userSpaceOnUse"/>
    <linearGradient id="linearGradient4555">
      <stop style="stop-color:#141618;stop-opacity:1" offset="0" id="stop4551"/>
      <stop id="stop4559" offset="0.51820582" style="stop-color:#686868;stop-opacity:1"/>
      <stop style="stop-color:#31363b;stop-opacity:1" offset="1" id="stop4553"/>
    </linearGradient>
    <filter style="color-interpolation-filters:sRGB" id="filter4601" x="-0.030244762" width="1.0604895" y="-0.030100647" height="1.0602013">
      <feGaussianBlur stdDeviation="0.014790289" id="feGaussianBlur4603"/>
    </filter>
    <linearGradient xlink:href="#linearGradient4303" id="f-3" y1="551.79797" y2="528.79797" gradientUnits="userSpaceOnUse" x2="0" gradientTransform="matrix(0.63587,0,0,1,144.251,-31)"/>
    <linearGradient inkscape:collect="always" id="linearGradient4303">
      <stop style="stop-color:#c6cdd1" id="stop4305"/>
      <stop offset="1" style="stop-color:#e0e5e7" id="stop4307"/>
    </linearGradient>
    <linearGradient xlink:href="#linearGradient4143" id="g-3" gradientUnits="userSpaceOnUse" gradientTransform="matrix(0.78261,0,0,1,83.254,-8)" y1="557.79797" x2="0" y2="505.798"/>
    <linearGradient inkscape:collect="always" id="linearGradient4143">
      <stop style="stop-color:#197cf1" id="stop4145"/>
      <stop offset="1" style="stop-color:#20bcfa" id="stop4147"/>
    </linearGradient>
    <linearGradient xlink:href="#linearGradient4143-8" id="k" x1="398.57101" x2="400.57101" gradientUnits="userSpaceOnUse" gradientTransform="matrix(2,0,0,2,-396.571,-537.798)"/>
    <linearGradient inkscape:collect="always" id="linearGradient4143-8">
      <stop style="stop-color:#faae2a" id="stop4145-7"/>
      <stop offset="1" style="stop-color:#ffc35a" id="stop4147-4"/>
    </linearGradient>
    <linearGradient xlink:href="#linearGradient4143-8" id="l" x1="398.57101" gradientUnits="userSpaceOnUse" x2="400.57101" gradientTransform="matrix(2,0,0,2,-384.571,-537.798)"/>
    <linearGradient id="f" gradientUnits="userSpaceOnUse" x1="10.999994" x2="11.000004" y1="21.999969" y2="8.9999971">
      <stop offset="0" stop-color="#7cbaf8" id="stop19"/>
      <stop offset="1" stop-color="#f4fcff" id="stop21"/>
    </linearGradient>
    <linearGradient id="a" gradientTransform="matrix(0.6770843,0,0,0.69118956,-255.63738,-341.36517)" gradientUnits="userSpaceOnUse" x1="379.03311" x2="393.80231" y1="521.36951" y2="501.11459">
      <stop offset="0" stop-color="#c6cdd1" id="stop2-6"/>
      <stop offset="1" stop-color="#e0e5e7" id="stop4-1"/>
    </linearGradient>
    <linearGradient id="b" gradientTransform="matrix(0.66477325,0,0,0.60185273,-249.971,-294.5464)" gradientUnits="userSpaceOnUse" x1="386.57144" x2="429.57144">
      <stop offset="0" stop-color="#f2f2f2" id="stop7"/>
      <stop offset="1" stop-color="#f9f9f9" id="stop9"/>
    </linearGradient>
    <linearGradient id="c" gradientUnits="userSpaceOnUse" x1="11.000006" x2="19.750025" y1="6.9999809" y2="15.74998">
      <stop offset="0" stop-color="#292c2f" id="stop12"/>
      <stop offset="1" stop-opacity="0" id="stop14"/>
    </linearGradient>
  </defs>
  <g transform="translate(1,1)">
    <g id="g865" transform="matrix(0.94413068,0,0,1,0.9077355,-0.27008678)">
      <path d="M 1,2 V 20 H 21 V 2 Z" fill="#23262c" stroke-width="0.625" id="path17"/>
      <path d="M 1.0000062,5.1250124 H 21 V 19 H 1 Z" fill="url(#a)" stroke-width="0.625" id="path19" style="fill:url(#a)"/>
      <path d="M 2,6 H 20 V 7 H 2 Z" fill="#cad3d6" stroke-width="0.801781" id="path21"/>
      <path d="M 2,3 V 4 H 4 V 3 Z M 2,7 V 17 H 20 V 7 Z" fill="url(#b)" stroke-width="0.633869" id="path23" style="fill:url(#b)"/>
      <path d="m 17,6 -1,11 2,2 h 3 v -9 z" fill="url(#c)" opacity="0.2" stroke-width="0.625" id="path25" style="fill:url(#c)"/>
      <path d="m 17,6 h -2 l -3.2e-5,9.303812 L 16,17 16.999968,15.303812 Z" fill="#23262c" id="path27"/>
      <g stroke-width="0.625" id="g33">
        <path d="m 15,11 h 2 v 3 h -2 z" fill="#74868f" id="path29"/>
        <path d="m 18,3 v 1 h 2 V 3 Z m -3,11 v 1 h 2 v -1 z" fill="#147de1" id="path31"/>
      </g>
    </g>
    <path style="display:inline;mix-blend-mode:normal;fill:url(#linearGradient3403);fill-opacity:1;stroke:url(#linearGradient20558);stroke-width:1.16242;stroke-linecap:butt;stroke-linejoin:round;stroke-miterlimit:4;stroke-dasharray:none;stroke-opacity:1;filter:url(#filter20720)" d="M 4.7043071,3.9814882 4.6913695,60.80196 H 58.59546 l 1.022155,-2.866369 c 0,0 -23.87537,0.766388 -32.844441,-4.140386 C 16.257548,48.042344 11.401114,4.0978197 11.401114,4.0978197 Z" id="path1686" sodipodi:nodetypes="ccccscc" transform="matrix(0.33315697,0,0,0.33315697,0.46590276,0.36335618)" inkscape:label="folder"/>
    <rect style="display:inline;fill:none;fill-opacity:1;stroke:url(#linearGradient4557);stroke-width:3.71366;stroke-linejoin:round;stroke-miterlimit:7.8;stroke-dasharray:none;stroke-opacity:0.995146;filter:url(#filter4601)" id="rect4539" width="62.567089" height="62.866646" x="1.0323594" y="0.59551275" ry="6.2447233" rx="5.8029528" transform="matrix(0.3120957,0,0,0.31145958,1.0256606,1.036565)" inkscape:label="contour"/>
  </g>
</svg>

<svg width="24" height="24" version="1.1" viewBox="0 0 24 24" xmlns="http://www.w3.org/2000/svg" xmlns:xlink="http://www.w3.org/1999/xlink">
<defs>
<linearGradient id="linearGradient3403" x1="6.9492" x2="11.215" y1="4.5549" y2="59.052" gradientUnits="userSpaceOnUse">
<stop style="stop-color:#32373c" offset="0"/>
<stop style="stop-color:#1a1a1a" offset=".36805"/>
<stop style="stop-color:#31363b" offset="1"/>
</linearGradient>
<linearGradient id="linearGradient20558" x1="25.802" x2="25.111" y1="20.374" y2="58.913" gradientUnits="userSpaceOnUse">
<stop style="stop-color:#3d3d3d" offset="0"/>
<stop offset=".61772"/>
<stop style="stop-color:#3d3d3d" offset="1"/>
</linearGradient>
<linearGradient id="linearGradient4557" x1="43.5" x2="44.142" y1="64.012" y2=".30621" gradientTransform="translate(.36068 -.13017)" gradientUnits="userSpaceOnUse">
<stop style="stop-color:#141618" offset="0"/>
<stop style="stop-color:#686868" offset=".51821"/>
<stop style="stop-color:#31363b" offset="1"/>
</linearGradient>
<linearGradient id="a" x1="379.03" x2="393.8" y1="521.37" y2="501.11" gradientTransform="matrix(.67708 0 0 .69119 -255.64 -341.37)" gradientUnits="userSpaceOnUse">
<stop stop-color="#c6cdd1" offset="0"/>
<stop stop-color="#e0e5e7" offset="1"/>
</linearGradient>
<linearGradient id="b" x1="386.57" x2="429.57" gradientTransform="matrix(.66477 0 0 .60185 -249.97 -294.55)" gradientUnits="userSpaceOnUse">
<stop stop-color="#f2f2f2" offset="0"/>
<stop stop-color="#f9f9f9" offset="1"/>
</linearGradient>
<linearGradient id="c" x1="11" x2="19.75" y1="7" y2="15.75" gradientUnits="userSpaceOnUse">
<stop stop-color="#292c2f" offset="0"/>
<stop stop-opacity="0" offset="1"/>
</linearGradient>
</defs>
<g transform="translate(1,1)">
<g transform="matrix(.94413 0 0 1 .90774 -.27009)">
<path d="m1 2v18h20v-18z" fill="#23262c" stroke-width=".625"/>
<path d="m1 5.125h20v13.875h-20z" fill="url(#a)" stroke-width=".625" style="fill:url(#a)"/>
<path d="m2 6h18v1h-18z" fill="#cad3d6" stroke-width=".80178"/>
<path d="m2 3v1h2v-1zm0 4v10h18v-10z" fill="url(#b)" stroke-width=".63387" style="fill:url(#b)"/>
<path d="m17 6-1 11 2 2h3v-9z" fill="url(#c)" opacity=".2" stroke-width=".625" style="fill:url(#c)"/>
<path d="m17 6h-2l-3.2e-5 9.3038 1 1.6962 0.99997-1.6962z" fill="#23262c"/>
<g stroke-width=".625">
<path d="m15 11h2v3h-2z" fill="#74868f"/>
<path d="m18 3v1h2v-1zm-3 11v1h2v-1z" fill="#147de1"/>
</g>
</g>
<path transform="matrix(.33316 0 0 .33316 .4659 .36336)" d="m4.7043 3.9815-0.012938 56.82h53.904l1.0222-2.8664s-23.875 0.76639-32.844-4.1404c-10.516-5.7529-15.372-49.697-15.372-49.697z" style="fill:url(#linearGradient3403);mix-blend-mode:normal;stroke-linejoin:round;stroke-width:1.1624;stroke:url(#linearGradient20558)"/>
<rect transform="matrix(.3121 0 0 .31146 1.0257 1.0366)" x="1.0324" y=".59551" width="62.567" height="62.867" rx="5.803" ry="6.2447" style="fill:none;stroke-linejoin:round;stroke-miterlimit:7.8;stroke-opacity:.99515;stroke-width:3.7137;stroke:url(#linearGradient4557)"/>
</g>
</svg>
